X: 43650
T: Zipper, The
R: reel
M: 4/4
K: Aminor
|:EA ~A2 cA ~A2|EA ~A2 cA~A2|EA~A2 cA~A2|EA~A2 cBAG|
FA~A2 cA~A2|FA~A2 cA~A2|FA~A2 cA~A2|dcBA GABG:|
|:EG ~G2 GFED|CB,CD ECDE|Dd ~d2 dcBA|GFGA BGAB|
Af ~f2 fedc|(3ABA AB AGFE|A,DFD A,DFD|B,DGD B,DGD:|

